icons/svg/gif_16.svg

<?xml version="1.0" encoding="UTF-8"?>
<svg width="16px" height="16px" viewBox="0 0 16 16" version="1.1" xmlns="http://www.w3.org/2000/svg" xmlns:xlink="http://www.w3.org/1999/xlink">
    <!-- Generator: Sketch 60.1 (88133) - https://sketch.com -->
    <title>chat/gif_16</title>
    <desc>Created with Sketch.</desc>
    <g id="Icons-Webex" stroke="none" stroke-width="1" fill="none" fill-rule="evenodd">
        <g id="chat/gif_16" transform="translate(0.000300, 0.000000)" fill="#171B1F">
            <path d="M10.713,0.333 C10.503,0.121 10.211,0 9.914,0 L2.5,0 C1.122,0 0,1.121 0,2.5 L0,13.5 C0,14.879 1.122,16 2.5,16 L13.5,16 C14.878,16 16,14.879 16,13.5 L16,6.159 C16,5.858 15.883,5.574 15.672,5.359 L10.713,0.333 Z M15,13.5 C15,14.327 14.327,15 13.5,15 L2.5,15 C1.673,15 1,14.327 1,13.5 L1,2.5 C1,1.673 1.673,1 2.5,1 L9.914,1 C9.945,1 9.981,1.015 10.001,1.035 L14.958,6.06 C14.986,6.088 15,6.121 15,6.159 L15,13.5 Z M11.3883,13.5001 L11.3883,11.1081 L13.6763,11.1081 L13.6763,10.3321 L11.3883,10.3321 L11.3883,8.5401 L13.9403,8.5401 L13.9403,7.7401 L10.3643,7.7401 L10.3643,13.5001 L11.3883,13.5001 Z M9.2603,13.5001 L9.2603,7.7401 L8.2363,7.7401 L8.2363,13.5001 L9.2603,13.5001 Z M4.6443,13.6201 C5.0123,13.6201 5.34563333,13.5547667 5.6443,13.4241 C5.94296667,13.2934333 6.18563333,13.1107667 6.3723,12.8761 L6.3723,12.8761 L6.5163,13.5001 L7.2203,13.5001 L7.2203,10.3561 L4.7563,10.3561 L4.7563,11.1001 L6.3163,11.1001 L6.3163,11.5321 C6.3163,11.8841 6.18563333,12.1827667 5.9243,12.4281 C5.6363,12.7001 5.26296667,12.8361 4.8043,12.8361 C4.36696667,12.8361 4.00163333,12.6787667 3.7083,12.3641 C3.33496667,11.9587667 3.1483,11.3721 3.1483,10.6041 C3.1483,9.92143333 3.28696667,9.3881 3.5643,9.0041 C3.85763333,8.6041 4.2683,8.4041 4.7963,8.4041 C5.14296667,8.4041 5.43363333,8.47876667 5.6683,8.6281 C5.94563333,8.8041 6.1243,9.06543333 6.2043,9.4121 L6.2043,9.4121 L7.2123,9.4121 C7.1323,8.9161 6.9003,8.5081 6.5163,8.1881 C6.06296667,7.80943333 5.48963333,7.6201 4.7963,7.6201 C4.04963333,7.6201 3.43896667,7.83876667 2.9643,8.2761 C2.38296667,8.80943333 2.0923,9.58543333 2.0923,10.6041 C2.0923,11.5001 2.31096667,12.2174333 2.7483,12.7561 C3.21763333,13.3321 3.84963333,13.6201 4.6443,13.6201 Z" id="fill"></path>
        </g>
    </g>
</svg>

<svg width="16" height="16" xmlns="http://www.w3.org/2000/svg"><path d="M10.713.333A1.133 1.133 0 009.914 0H2.5A2.503 2.503 0 000 2.5v11C0 14.879 1.122 16 2.5 16h11c1.378 0 2.5-1.121 2.5-2.5V6.159c0-.301-.117-.585-.328-.8L10.713.333zM15 13.5c0 .827-.673 1.5-1.5 1.5h-11c-.827 0-1.5-.673-1.5-1.5v-11C1 1.673 1.673 1 2.5 1h7.414c.031 0 .067.015.087.035l4.957 5.025a.135.135 0 01.042.099V13.5zm-3.611 0v-2.392h2.288v-.776h-2.288V8.54h2.552v-.8h-3.576v5.76h1.024zm-2.128 0V7.74H8.237v5.76H9.26zm-4.616.12a2.47 2.47 0 001-.196c.298-.13.54-.313.728-.548l.144.624h.704v-3.144H4.757v.744h1.56v.432c0 .352-.131.65-.392.896-.288.272-.662.408-1.12.408-.438 0-.803-.157-1.096-.472-.374-.405-.56-.992-.56-1.76 0-.683.138-1.216.416-1.6.293-.4.704-.6 1.232-.6.346 0 .637.075.872.224.277.176.456.437.536.784h1.008a1.947 1.947 0 00-.696-1.224c-.454-.379-1.027-.568-1.72-.568-.747 0-1.358.219-1.832.656-.582.533-.872 1.31-.872 2.328 0 .896.218 1.613.656 2.152.469.576 1.1.864 1.896.864z" fill="#171B1F" fill-rule="evenodd"/></svg>
